X:1
T: Farewell to Liberty
C:
R:Jig
Q:180
K:Em
M:6/8
L:1/16
|:EF|G6 A2G2A2|B2e2e2 e4d2|B2d2d2 d2B2A2|B2G2E2 D2E2F2|
G2F2G2 A2G2A2|B2e2e2 e4d2|B2d2d2 d2B2A2|B2G2E2 E4:|
|:ef|g4e2 f4e2|d2B2B2 B4A2|G2g2g2 g2f2e2|B2e2e2 e4f2|
g2f2e2 f2e2d2|e2d2B2 B4A2|G3GAB d2B2A2|B2G2E2 E4:|
